resources/icons/light/view-flat.svg

<?xml version="1.0" encoding="utf-8"?>
<!-- Generator: Adobe Illustrator 22.1.0, SVG Export Plug-In . SVG Version: 6.00 Build 0)  -->
<svg version="1.1" xmlns="http://www.w3.org/2000/svg" xmlns:xlink="http://www.w3.org/1999/xlink" x="0px" y="0px"
	 viewBox="0 0 16 16" style="enable-background:new 0 0 16 16;" xml:space="preserve">
<style type="text/css">
	.st0{fill:#F6F6F6;}
	.st1{fill:#424242;}
	.st2{fill:#F0EFF1;}
</style>
<g id="_x7B__PAGE_GRID__x7D_">
</g>
<g id="outline">
	<path class="st0" d="M1,1h5v1l10,0v3L6,5v2h10v3H6v2l10,0v3L6,15v1H1V1z"/>
</g>
<g id="icon_x5F_bg">
	<g>
		<path class="st1" d="M2,2v3h3V2H2z M4,4H3V3h1V4z"/>
	</g>
	<g>
		<path class="st1" d="M2,7v3h3V7H2z M4,9H3V8h1V9z"/>
	</g>
	<g>
		<path class="st1" d="M2,12v3h3v-3H2z M4,14H3v-1h1V14z"/>
	</g>
	<rect x="6" y="3" class="st1" width="9" height="1"/>
	<rect x="6" y="8" class="st1" width="9" height="1"/>
	<rect x="6" y="13" class="st1" width="9" height="1"/>
</g>
<g id="icon_x5F_fg">
	<path class="st2" d="M3,3v1h1V3H3z"/>
	<path class="st2" d="M3,8v1h1V8H3z"/>
	<path class="st2" d="M3,13v1h1v-1H3z"/>
</g>
<g id="not_x5F_bg">
</g>
<g id="not_x5F_fg">
</g>
</svg>

<svg width="16" height="16" viewBox="0 0 16 16" fill="none" xmlns="http://www.w3.org/2000/svg">
<path d="M2 2V5H5V2H2ZM4 4H3V3H4V4Z" fill="#424242"/>
<path d="M2 7V10H5V7H2ZM4 9H3V8H4V9Z" fill="#424242"/>
<path d="M2 12V15H5V12H2ZM4 14H3V13H4V14Z" fill="#424242"/>
<path d="M15 3H6V4H15V3Z" fill="#424242"/>
<path d="M15 8H6V9H15V8Z" fill="#424242"/>
<path d="M15 13H6V14H15V13Z" fill="#424242"/>
</svg>
